X:14141
T:Reel du Cultivateur
C:Joseph Allard
M:2/4
L:1/16
K:C
EG|c2cc cGce|d2dd dBdf|edce dcBd|cecA G2EG|!
c2cc cGce|d2dd dBdf|edce dcBd|c2cB c2:|!
|:GF|EGcG EcGE|FAcA FAcA|GBdB GBdB|cedc BAGF|!
EGcG EcGE|FAcA FAcA|GBdB GBdB|c2cB c2:|!
